X: 288
T:Regina Stubbert's Jig
R:jig
C:Brenda Stubbert
O:Cape Breton Island
D:Tamarac 'er Down,1987
B:Brenda Stubbert's Collection of Fiddle Tunes
S:http://www.cranfordpub.com
Z:psc, (re-formatted,updated 9/19/04)
Z:chords Alf Warnock
N:http://www.cranfordpub.com/stubbert
H:copyrights Stubbert Music, SOCAN
L:1/8
M:6/8
K:D
|:"D"ABA DFG|Adf a2g|fef dAG|"F#m"F3 FGA|"G"GFG BAG|
"D"FDF dcd|[1 "G"BGB gfe|"A7"cde AFG :|[2"A7"efg ABc|"D"d3 dfg||
|:"D"a^ga ba=g|fef dAG|FDF dAG|"F#m"F3 FGA|"G"GFG BAG|
"D"FDF dcd|[1 "E7"E^GB =gfe|"A7"cde Afg:|[2"A7"efg ABc|"D"d3 dcB|]
